X:0293
T:Poor a purse but routh o' Credit.
M:C
L:1/16
Q:1/4=100
I: :: ::
Z:Jack Campin * www.campin.me.uk * 2009
K:D Mixolydian
(defg) a4 f2d2 (fgaf)|defg a4   g2c2 efge |
 defg  a4 f2d2  fgaf |efge fgaf gfed c2e2:|
 f2d2A2d2 f2d2  efge |f2d2A2d2  g2c2 efge |
 f2d2A2d2 f2d2  fgaf |g2ag f2gf e2c2 efge:|
<end>
<start>
